!!!OTL: DREI TAG GEH MER NET HAN
!!!ARE: Europa, Mitteleuropa, Deutschland, Schwaben, Ulm
!!!SCT: E1001
!!!YEM: Copyright 1995, estate of Helmut Schaffrath.
**kern
*ICvox
*Ivox
*M3/8
*k[b-]
*F:
=1
{8.cc
16b-
8a
=2
8.cc
16b-
8a
=3
8g
8f
8g
=4
4f}
{8a
=5
8g
8g
8g
=6
8g
8a
8b-
=7
4a
8b-
=8
4cc}
{8a
=9
8g
8g
8g
=10
8g
8a
8b-
=11
4a
8b-
=12
4.cc}
=13
{8.cc
16b-
8a
=14
8.cc
16b-
8a
=15
8g
8f
8g
=16
4.f}
==
!!!AGN: Tanz - Lied
!!!ONB: ESAC (Essen Associative Code) Database: ERK3
!!!AMT: simple triple
!!!AIN: vox
!!!EED: Helmut Schaffrath
!!!EEV: 1.0
*-
